X:1
T:Yesterday
C:Lennon & McCartney
L:1/8
M:C
I:linebreak $
K:F
"F" (3G2 F2 F2 z4 |"Eø" z2 A=B"A7" ^cdef |"Dm" e3 d"Dm/C" d4 |"Bb" z2 dd"C7" cBAG |$
"F" B2 AA"Eø" z2 G2 |"Dm" F2 A2"G7" G2 D2 |"Bb" F2 A2"F""_Fine" A4 :|"Eø" A4"A7" A4 |$
"Dm" d2"C" e2"Bb" f2 ed |"C7" e3 d c d3 |"F" A8 |"Eø" A4"A7" A4 |$"Dm" d2"C" e2"Bb" f2 ed |
"C7" e3 d c2 e2 |"F" f2 c2 B2"_D.C. al Fine" A2 ||

